X:1
T:?
G:Kazimodal
R:Kost ar c'hoad
C:Xorima, arrangement http://kazimodal.trad.org
P:(ABB)2
M:4/4
K:G
P:A
K:G
Q:C2=150
M:4/4
%%MIDI gchord fzczfcfz
%%MIDI program 0
%%MIDI chordprog 0
%%MIDI bassprog 0
|: "G"G>A BG dB "Em"G2 | G>B "C"AG FG "D"A2 |\
	 "G" G>A BG dB "Em"G2 | G>B "C"AG "D"A>F "G"G2 :|
P:B
Q:C2=150
M:4/4
K:Dm
%%MIDI gchord fzczfcfz
|: "Dm"d>e fd "C"ec "Bb"d2 | d>e fd "C"e2 "Dm"d2 :|
|: "Dm"A>c d>e "F"d>c "G"d2 | "Am"A>c "Bb"d>e "C"d>c "Dm"A2 :|
%%text Appel : partie B


